X: 1
T: Someone Like You
M: 4/4
L: 1/4
Q:1/4=160
K:C
F, C [Gc] C|G, D [G_B] D|_E, _B, [F_B] _B,|_B,, F, [CF] [F, D]|
F, C [Gc] C|G, D [G_B] D|_E, _B, [F_B] _B,|_B,, F, [CF] [F, D]|[C2F] z2|
